X:1
T:The Gospel Call
T:The Gospel Call
T:George Coles Stebbins
T:Arthur Tappan Pierson, 1882
T:Public Domain Courtesy of the Cyber Hymnal™
T:Public Domain Courtesy of the Cyber Hymnal™
C:George Coles Stebbins
Z:Public Domain
Z:Courtesy of the Cyber Hymnal™
%%score ( 1 2 ) ( 3 4 )
L:1/8
Q:1/4=100
M:6/8
K:Eb
V:1 treble 
V:2 treble 
V:3 bass 
V:4 bass 
V:1
 [GB] | [GB]2 [^F=A] [GB]2 [_Ac] | [GB]2 [FA] [EG]2 [DF] | [CE]2 [CE] ([CE][=B,D])[CE] | %4
w: 1.~The|Spir- it and the|Bride say, “Come And|take the water * of|
w: 2.~Let|ev- ery one who|hears say, “Come!” And|joy- ful wit- * ness|
w: 3.~Ye|souls who are a-|thirst, for- sake Your|brok- en cis- * terns|
w: 4.~Yea,|who- so- ev- er|will may come: Your|long- ings Christ * can|
 [DF]3- [DF]2 [EG] | [FA]2 [=EG] [FA]2 [Ac] | [GB]2 [^F=A] [GB]2 [Ge] | %7
w: life!” * O|bless- èd call! Good|news to all Who|
w: give; * “I|heard the sound, the|stream I found, I|
w: first; * Then|come, par- take; one|draught will slake Your|
w: fill; * The|stream is free to|you and me, And|
 [Fd]2 [DB] ([Ec][DB])[C=A] | [DB]3- [DB]2 ||"^Refrain" [AB] | [Ge]4 [Bd][Ac] | [GB]3- [GB]2 [GB] | %12
w: tire of sin * and|strife! *||||
w: drank, and now * I|live.” *|The|Spir- it says,|“Come!” * The|
w: soul’s con- sum- * ing|thirst. *||||
w: who- so- ev- * er|will. *||||
 ([Ac]3- [Ac][GB])[FA] | [EG]3- [EG]2 [EG] | [FA]4 [GB][Ac] | [GB]3 [EG]2 [DF] | %16
w: ||||
w: Bride * * says,|“Come * And|take of the|wa- ter of|
w: ||||
w: ||||
 ([CE]3- [CE][=B,D][CE]) | [EG]3 [DF]2 [AB] | [Ge]4 [Bd][Ac] | [GB]3- [GB]2 [GB] | %20
w: ||||
w: life * * *|free- ly.” The|Spir- it says,|“Come!” * The|
w: ||||
w: ||||
 ([Ac]3- [Ac][GB])[FA] | [EG]3- [EG]2 [_DG] | [CA]4 [=DB][Ec] | [EB]3 E2 [EF] | ([EG]3- GFE) | %25
w: |||||
w: Bride * * says,|“Come * And|take of the|wa- ter of|life * * *|
w: |||||
w: |||||
 [DF]3 E2 |] %26
w: |
w: free- ly.”|
w: |
w: |
V:2
 x | x6 | x6 | x6 | x6 | x6 | x6 | x6 | x5 || x | x6 | x6 | x6 | x6 | x6 | x6 | x6 | x6 | x6 | x6 | %20
 x6 | x6 | x6 | x3 E2 x | x3 E3 | x3 E2 |] %26
V:3
 [E,E] | [E,E]2 [E,E] [E,E]2 [E,E] | [E,E]2 [E,B,] [E,B,]2 [B,,A,] | %3
w: ~|~ ~ ~ ~|~ ~ ~ ~|
 [C,G,]2 [C,G,] ([F,=A,][F,A,])[F,A,] | [B,,B,]3- [B,,B,]2 [B,,B,] | %5
w: ~ ~ ~ * ~|~ * ~|
 [B,,B,]2 [B,,B,] [B,,B,]2 [B,,D] | [E,E]2 [E,E] [E,E]2 [E,B,] | [F,B,]2 F, (=A,B,)[F,C] | %8
w: ~ ~ ~ ~|~ ~ ~ ~|~ ~ ~ * ~|
 [B,,B,]3- [B,,B,]2 || B, | [E,B,]2 [E,B,] [E,B,]2 [E,E] | [E,E]2 [E,E] [E,E]2 [E,E] | %12
w: ~ *|The|Spir- it and the|Bride say, “Come!” The|
 [E,E]2 [E,E] [E,E]2 [E,B,] | [E,B,]2 [E,B,] [E,B,]2 [E,B,] | %14
w: Spir- it and the|Bride say, “Come And|
 [B,,B,]2 [B,,B,] [B,,B,][B,,B,][B,,D] | [E,E]2 [E,E] [E,B,]2 [B,,A,] | %16
w: take the wa- ter of|life, of life, The|
 [C,G,][C,G,][C,G,] [F,=A,]3 | [B,,B,]3 [B,,B,]2 B, | [E,B,]2 [E,B,] [E,B,]2 [E,E] | %19
w: wa- ter of life|free- ly.” The|Spir- it and the|
 [E,E]2 [E,E] [E,E]2 [E,E] | [E,E]2 [E,E] [E,E]2 [E,B,] | [E,B,]2 [E,B,] [E,B,]2 E, | %22
w: Bride say, “Come!” The|Spir- it and the|Bride say, “Come And|
 [A,,E,]2 [A,,A,] [A,,A,][A,,A,][A,,A,] | [B,,G,]2 [B,,G,] [C,G,]2 [C,=A,] | %24
w: take the wa- ter of|life, of life, The|
 [B,,B,][B,,B,][B,,B,] (B,A,G,) | [B,,A,]3 [E,G,]2 |] %26
w: wa- ter of life * *|free- ly.”|
V:4
 x | x6 | x6 | x6 | x6 | x6 | x6 | x2 F, F,2 x | x5 || B, | x6 | x6 | x6 | x6 | x6 | x6 | x6 | %17
 x5 B, | x6 | x6 | x6 | x5 E, | x6 | x6 | x3 B,,3 | x5 |] %26

